Sources/FrostedUI/Resources/Icons.xcassets/fullScreen32.imageset/full-screen-32.svg

<svg width="32" height="32" viewBox="0 0 32 32" fill="none" xmlns="http://www.w3.org/2000/svg" data-fui-icon="true">
  <path
    d="M3.5 20.25C3.91421 20.25 4.25 20.5858 4.25 21V22.5C4.25 25.3995 6.60051 27.75 9.5 27.75H11C11.4142 27.75 11.75 28.0858 11.75 28.5C11.75 28.9142 11.4142 29.25 11 29.25H9.5C5.77208 29.25 2.75 26.2279 2.75 22.5V21C2.75 20.5858 3.08579 20.25 3.5 20.25ZM28.5 20.25C28.9142 20.25 29.25 20.5858 29.25 21V22.5C29.25 26.2279 26.2279 29.25 22.5 29.25H21C20.5858 29.25 20.25 28.9142 20.25 28.5C20.25 28.0858 20.5858 27.75 21 27.75H22.5C25.3995 27.75 27.75 25.3995 27.75 22.5V21C27.75 20.5858 28.0858 20.25 28.5 20.25ZM11 2.75C11.4142 2.75 11.75 3.08579 11.75 3.5C11.75 3.91421 11.4142 4.25 11 4.25H9.5C6.60051 4.25 4.25 6.60051 4.25 9.5V11C4.25 11.4142 3.91421 11.75 3.5 11.75C3.08579 11.75 2.75 11.4142 2.75 11V9.5C2.75 5.77208 5.77208 2.75 9.5 2.75H11ZM22.5 2.75C26.2279 2.75 29.25 5.77208 29.25 9.5V11C29.25 11.4142 28.9142 11.75 28.5 11.75C28.0858 11.75 27.75 11.4142 27.75 11V9.5C27.75 6.60051 25.3995 4.25 22.5 4.25H21C20.5858 4.25 20.25 3.91421 20.25 3.5C20.25 3.08579 20.5858 2.75 21 2.75H22.5Z"
    fill="currentColor"
  />
</svg>

<svg xmlns="http://www.w3.org/2000/svg" width="32" height="32" fill="none" data-fui-icon="true" viewBox="0 0 32 32"><path fill="currentColor" d="M3.5 20.25a.75.75 0 0 1 .75.75v1.5c0 2.9 2.35 5.25 5.25 5.25H11a.75.75 0 0 1 0 1.5H9.5a6.75 6.75 0 0 1-6.75-6.75V21a.75.75 0 0 1 .75-.75m25 0a.75.75 0 0 1 .75.75v1.5a6.75 6.75 0 0 1-6.75 6.75H21a.75.75 0 0 1 0-1.5h1.5c2.9 0 5.25-2.35 5.25-5.25V21a.75.75 0 0 1 .75-.75M11 2.75a.75.75 0 0 1 0 1.5H9.5A5.25 5.25 0 0 0 4.25 9.5V11a.75.75 0 0 1-1.5 0V9.5A6.75 6.75 0 0 1 9.5 2.75zm11.5 0a6.75 6.75 0 0 1 6.75 6.75V11a.75.75 0 0 1-1.5 0V9.5c0-2.9-2.35-5.25-5.25-5.25H21a.75.75 0 0 1 0-1.5z"/></svg>
